!!!COM: Bach, Johann Sebastian
!!!CDT: 1685/3//-1750/7/28/
!!!OTL@@DE: Ach bleib bei uns, Herr Jesu Christ
!!!AGN: 4-Part Chorale
!!!SCT: BH 177
!!!SCT: BWV 253
**harm	**root	**kern	**kern	**kern	**kern
!	!	!bass	!tenor	!alto	!soprno
*	*Iorgan	*Iorgan	*Iorgan	*Iorgan	*Iorgan
*M4/4	*M4/4	*M4/4	*M4/4	*M4/4	*M4/4
*met(c)	*met(c)	*met(c)	*met(c)	*met(c)	*met(c)
*MM60	*MM60	*MM60	*MM60	*MM60	*MM60
*k[f#c#g#d#a#]	*k[f#c#g#d#a#]	*k[f#c#g#d#a#]	*k[f#c#g#d#a#]	*k[f#c#g#d#a#]	*k[f#c#g#d#a#]
*B:	*B:	*B:	*B:	*B:	*B:
I	4AA	4BB	4f#	4b	4dd#
=1	=1	=1	=1	=1	=1
I	4AA	4B	4f#	4b	8dd#
.	.	.	.	.	8ee
Vb	4EE	4A#	4f#	4cc#	4ff#
I	4AA	4B	4f#	4b	4dd#
IVb	4DD	4G#	8f#	4b	4b
.	.	.	8e	.	.
=2	=2	=2	=2	=2	=2
IV/IV	4GG	4A	4e	8a	4cc#
.	.	.	.	8g#	.
V/IV	4AA	4B	4B	4f#	4dd#
I/IV;	4DD;	4E;	4B;	4g#;	4ee;
I	4AA	4BB	4B	4f#	4dd#
=3	=3	=3	=3	=3	=3
V	4EE	4F#	4A#	8f#	4cc#
.	.	.	.	8e	.
vi	4FF#	8G#	4B	4d#	4b
.	.	8F#	.	.	.
IV	4DD	8E	2e	2g#	4.b
.	.	8F#	.	.	.
IVb	4DD	8G#	.	.	.
.	.	8A#	.	.	8cc#
=4	=4	=4	=4	=4	=4
I	4AA	4B	8d#	4f#	4dd#
.	.	.	8c#	.	.
Ib	4AA	8D#	4B	4f#	4dd#
.	.	8E	.	.	.
V	4EE	4F#	4B	4.f#	8cc#
.	.	.	.	.	8b
V	4EE	4F#	4A#	.	4cc#
.	.	.	.	8e	.
!!linebreak: 2
=5	=5	=5	=5	=5	=5
I;	2.AA;	2.BB;	2.F#;	2.d#;	2.b;
I	4AA	4BB	4f#	4b	4dd#
=6	=6	=6	=6	=6	=6
V	4EE	4F#	8f#	4a#	4cc#
.	.	.	8e	.	.
Vb/vi	4CC#	4F##	4d#	4a#	4dd#
vi	4FF#	4G#	4d#	8g#	4b
.	.	.	.	8f#	.
V/V	4BB	8c#	4c#	4e#	4g#
.	.	8B	.	.	.
=7	=7	=7	=7	=7	=7
Vb	4EE	4A#	4c#	4.f#	4a#
viib/V	4DD#	4G#	4B	.	4b
.	.	.	.	8e#	.
V;	4EE;	4F#;	4A#;	4f#;	4cc#;
V/vi	4CC#	4D#	4A#	4f##	4dd#
=8	=8	=8	=8	=8	=8
vi	4FF#	8G#	4B	4d#	4b
.	.	8F#	.	.	.
IVb	4DD	8G#	4e	4g#	4b
.	.	8A#	.	.	.
I	4AA	8B	8d#	4f#	4.b
.	.	8c#	8e	.	.
vib	8FF#	8B	8d#	8g#	.
vii	8GG#	8A#	8c#	8a#	8cc#
=9	=9	=9	=9	=9	=9
vi	4FF#	4G#	4B	4b	4dd#
Ib	4AA	8D#	4B	4f#	4dd#
.	.	8E	.	.	.
V	4EE	4F#	4B	4.f#	8cc#
.	.	.	.	.	8b
V	4EE	4F#	4A#	.	4cc#
.	.	.	.	8e	.
=10	=10	=10	=10	=10	=10
I;	2.AA;	2.BB;	2.F#;	2.d#;	2.b;
====	====	====	====	====	====
*-	*-	*-	*-	*-	*-
!!chor2scor: -l 2 -s 0.6 -o %b.pmx
!!!YEC: Copyright 1994, David Huron
!!!YEC: Changes/Additions 2001 by Craig Stuart Sapp
!!!YEN: United States of America
!!!SMA: 371 Bach Chorales, edited by Ludwig Erk, C.F. Peters
!!!PDT: 1850, 1865
!!!ONB: Harmony and Root analysis done manually
